X: 1
T: Rivkele's Tanz
C: (c) Terry Traub 11-23-2003
R: reel
M: 2/4
K: Dm
L: 1/8
|:\
"Dm"d2 d2 | aa a2 | "C"ggc'b | "Dm"a/b/a/^g/ a2 |\
"Gm"ggab | "Dm"afda | "A"a/b/a/g/ f/g/f/e/ | "Dm"d2 d2 :|
|:\
"C"ccde | "F"ff f2 | "C"ggc'b | "F"a/b/a/^g/ a2 |\
"Gm"ggab | "Dm"afda | "A"a/b/a/g/ f/g/f/e/ | "Dm"d2 d2 :|
|:\
"Dm"d'2 a^g- | ^g f/a/ g/f/e/d/ | d'2 a^g- | ^g f/a/ g/f/e/d/ |\
d'2 a^g- | ^g f/a/ g/f/e/d/ | "A"e/f/^g/a/ g/f/e/f/ | "Dm"dA dd :|
|:\
"C"ccde | "F"ff f2 | "C"ggc'b | "F"a/b/a/^g/ a2 |\
"Gm"ggab | "Dm"afda | "A"a/b/a/g/ f/g/f/e/ | "Dm"d2 d2 :|
